X:1
T:Title
%%score ( 1 2 ) ( 3 4 )
L:1/8
Q:1/4=95
M:4/4
K:C
V:1 treble nm="Grand Piano, Soprano"
V:2 treble 
V:3 bass nm="Choir Pad, From the Cyber Hymnal™"
V:4 bass 
V:1
 [CE][DF][EG][Ee] [EB][Ec][Ed][Ec] | [CG][CE] [CD]2 [CF]2 [FA]2 | %2
w: By~Grant~Colfax~Tullar * * * * * * *||
 [FA][Fc][Fc][FB] [FB][DF][FA][FA] | [FB][FA] [EG]6 | [CE][DF][EG][Ge] [Ec][EG] [CE]2 | %5
w: |||
 [DE][DE][CE][CE] [C_E][C=E] [Ec]2 | [EB][EA][^Fc][FA] [F^G][FA][Fd][FA] | [^FB][Fc] [=Fd]6 | %8
w: |||
 GG [Ee]2- [Ee][EB][Ed][Ec] | z2 F2 F2 z2 | [B,D][CE][DF][EG] [FA][FB] [Fe]2 | [Fd]2 E2 E2 [FG]2 | %12
w: ||||
 GG [Ge]2- [Ge][GB][Gd][Gc] | [GB][Gc] [Fd]2 [Ae]2 [Af]2 | [Ae][Ad][Gc][EG]- [EG]2 [^Fc]2 | %15
w: |||
 [Fd]2 [Ec]6- | [Ec]2 z2 z4 |] %17
w: ||
V:2
 x8 | x8 | x8 | x8 | x8 | x8 | x8 | x8 | x8 | [EB][Ec]CD B,A, [B,F]2 | x8 | z2 G4 z2 | x8 | x8 | %14
 x8 | x8 | x8 |] %17
V:3
 [C,G,][C,G,][C,C][C,G,] [C,G,][C,G,][C,G,][C,G,] | [E,G,][E,G,] [F,A,]2 [F,A,]2 [D,A,]2 | %2
 [D,D][D,D][G,D][G,D] [G,D][G,B,][G,B,][G,B,] | [G,D][G,B,] [C,C]6 | %4
 [C,G,][C,G,][C,C][C,C] [C,G,][C,G,] [C,G,]2 | %5
 [B,,^G,][B,,G,][A,,A,][A,,A,] [A,,A,][A,,A,] [A,,A,]2 | %6
 [A,D][A,C][D,C][D,C] [D,B,][D,C][D,A,][D,C] | [D,B,][D,A,] [G,B,]6 | %8
 G,G, [C,G,]2- [C,G,][C,G,][C,G,][C,G,] | [C,G,][C,G,] [D,G,]2 [G,,G,]2 [D,G,]2 | %10
 G,G,G,G, G,G, [G,A,]2 | [G,B,]2 [C,C]2 [^C,_B,]2 [D,=B,]2 | %12
 [G,B,][G,B,] [C,C]2- [C,C][E,C][E,C][E,C] | [E,C][E,C] [F,A,]2 [E,^C]2 [D,D]2 | z4 z2 C2 | %15
 [G,B,]2 [C,C]6- | [C,C]2 z2 z4 |] %17
V:4
 x8 | x8 | x8 | x8 | x8 | x8 | x8 | x8 | x8 | x8 | x8 | x8 | x8 | x8 | %14
 [E,C][F,D][G,E][G,C]- [G,C]2 A,D, | x8 | x8 |] %17

